X:153
T:Dancing Feet
R:reel
C:George Stewart MacLennan (1883-1927), Scotland
Z:id:hn-reel-153
M:C|
K:A
a2ea caAe | a2ea caBc | a2ea caAe |1 faea caBe :|2 faea caBc ||
|: eA~A2 ceAc | eA~A2 ceBc | eA~A2 ceAe |1 faea caBc :|2 faea caBe ||
P:variations
|: a2ea ceAc | a2ea ceBc | a2ea ceAc | faef ceBc :|
|: eA~A2 ceAc | eA~A2 ceBc | eA~A2 ceAc | faef ceBc :|

